X:1
T:VAMPIRE POLKA
T:VAMPIRE POLKA
T:Arrange for and dedicated to the Piano Forte B.V.E.
T:FOUR-EYES
T:1850
T:1850
T:1850
T:1850
C:FOUR-EYES
Z:1850
%%score { 1 | ( 2 3 ) }
L:1/8
M:2/4
K:Eb
V:1 treble nm="Piano" snm="Pno."
V:2 bass 
V:3 bass 
V:1
!p! .G!<(!.B{/c} (B/G/B)!<)! |"_cresc." .A.c{/d} c/(=B/c) | %2
"_cen---------------do" .d.f{/g} (f/=e/f/^f/) |!>(! .g.e{/f} (e/d/e)!>)! | %4
!p! .G!<(!.B{/c} (B/=A/B) | .A.c{/d} (c/=B/c)!<)! |!f! .d.f{/g} (f/=e/f) |{/f} .e(e/d/) .e z :| %8
!f! F2!sfz!!>(! f2!>)! | .e.d{/=e} (d/^c/d) | dc{/d} (c/=B/c) | cA{/c} (B/A/B) | %12
!f! F2!sfz!!>(! f2!>)! |!p! ed{/=e} d/^c/d | dc{/d} c/=B/c | B2!sfz! !arpeggio![Bdfb] z |] %16
!f! F2!sfz!!>(! f2!>)! |!p! ed{/=e} d/^c/d | dc{/d} c=B/c/ | cB{/c} B/A/B |!f! F2!sfz!!>(! f2!>)! | %21
!p! ed{/e} d/^c/d | dc{/d} c/=B/c | B!<(!B/B/ B/B/B/B/!<)! |]!f! B2!sfz!!>(! b2!>)! | ag g/^f/g | %26
 ff/=e/ f z | fe e/d/e |!f! e2!sfz! e'>!>(!a!>)! | c'/b/g{/a} g/^f/g | gf{/g} f/=e/f | %31
 e[Bg] [Ge] z |] %32
V:2
 [E,,E,][G,B,E] [G,B,E][G,B,E] | [A,,,A,,][A,CE] [A,CE][A,CE] | [B,,,B,,][A,B,D] [B,,,B,,][A,B,D] | %3
 [E,,E,][G,B,E] [G,B,E][G,B,E] | [E,,E,][G,B,E] [G,B,E][G,B,E] | A,,[A,CE] [A,CE][A,CE] | %6
 B,,[A,B,D] B,,[A,B,D] | C,[E,G,B,E] [E,G,B,E] z :| [F,,F,]2 [F,A,CE]2 | %9
 [B,,,B,,][F,B,D] [F,B,D][F,B,D] | [F,,F,][G,B,E] [G,B,E][G,B,E] | [B,,B,][F,B,D] [F,B,D][F,B,D] | %12
 [F,,F,]2 [F,A,CE]2 | [B,,,B,,][F,B,D] [F,B,D][F,B,D] | [F,,F,][F,A,E] [F,A,E][F,A,E] | %15
 [B,D]2 [B,,B,] z |] [F,,F,]2 [F,A,CE]2 | [B,,,B,,][F,B,D] [F,B,D][F,B,D] | %18
 [F,,F,][F,A,E] [F,A,E][F,A,E] | [B,,B,][F,B,D] [F,B,D][F,B,D] | [F,,F,]2 [F,A,CE]2 | %21
 [B,,,B,,][F,B,D] [F,B,D][F,B,D] | [F,,F,][F,A,E] [F,A,E][F,A,E] | [B,D] z z x |] %24
 [B,,,B,,]2 [B,DFA]2 | [C,C][B,,,G,,B,,] [B,,,G,,B,,][B,,,G,,B,,] | [B,DA][B,DA] [B,DA][K:bass] z | %27
 x[K:treble] [B,EG] [B,EG][B,EG][K:bass] | [_C,_C]2 [_CE_G=A]2 | %29
 [B,,B,][K:treble][B,EG] [B,EG][B,EG] | x[K:treble] [B,DA] [B,DA][B,DA] | %31
 x[K:bass] [E,,E,] [E,,E,] z |] %32
V:3
 x4 | x4 | x4 | x4 | x4 | x4 | x4 | x4 :| x4 | x4 | x4 | x4 | x4 | x4 | x4 | x4 |] x4 | x4 | x4 | %19
 x4 | x4 | x4 | x4 | x4 |] x4 | x4 | [B,,B,] x3/2[K:bass] x/ x | [E,E][K:treble] x5/2[K:bass] x/ | %28
 x4 | x[K:treble] x3 | [Gg][K:treble] x3 | [DG][K:bass] x3 |] %32

